; generated by Slic3r 1.37.1-prusa3d-linux64 on 2017-09-19 at 14:37:52

; 

; external perimeters extrusion width = 0.42mm
; perimeters extrusion width = 0.45mm
; infill extrusion width = 0.45mm
; solid infill extrusion width = 0.45mm
; top infill extrusion width = 0.42mm
; first layer extrusion width = 0.42mm

M107 ; disable fan
M115 U3.0.12 ; tell printer latest fw version
M83  ; extruder relative mode
M104 S215 ; set extruder temp
M140 S55 ; set bed temp
M190 S55 ; wait for bed temp
M109 S215 ; wait for extruder temp
G28 W ; home all without mesh bed level
G80 ; mesh bed leveling
G1 Y-3.0 F1000.0 ; go outside pritn area
G1 X60.0 E9.0  F1000.0 ; intro line
G1 X100.0 E12.5  F1000.0 ; intro line
; Filament gcode

G21 ; set units to millimeters
G90 ; use absolute coordinates
M83 ; use relative distances for extrusion
;BEFORE_LAYER_CHANGE
;0.2


G1 E-0.80000 F2100.00000 ; retract
G1 Z0.600 F7200.000 ; lift Z
;AFTER_LAYER_CHANGE
;0.2
G1 X98.026 Y79.379 F7200.000 ; move to first skirt point
G1 Z0.200 F7200.000 ; restore layer Z
G1 E0.80000 F2100.00000 ; unretract
M204 S1000 ; adjust acceleration
G1 F2100
G1 X98.843 Y78.647 E0.03440 ; skirt
G1 X99.804 Y78.092 E0.03477 ; skirt
G1 X100.861 Y77.745 E0.03489 ; skirt
G1 X101.917 Y77.624 E0.03334 ; skirt
G1 X148.004 Y77.623 E1.44500 ; skirt
G1 X149.093 Y77.735 E0.03433 ; skirt
G1 X150.076 Y78.042 E0.03227 ; skirt
G1 X150.774 Y78.395 E0.02455 ; skirt
G1 X151.610 Y79.015 E0.03264 ; skirt
G1 X152.335 Y79.820 E0.03396 ; skirt
G1 X152.867 Y80.717 E0.03270 ; skirt
G1 X153.147 Y81.449 E0.02456 ; skirt
G1 X153.354 Y82.510 E0.03390 ; skirt
G1 X153.376 Y127.069 E1.39711 ; skirt
G1 X153.261 Y128.112 E0.03292 ; skirt
G1 X152.951 Y129.094 E0.03228 ; skirt
G1 X152.602 Y129.778 E0.02408 ; skirt
G1 X151.969 Y130.628 E0.03322 ; skirt
G1 X151.154 Y131.355 E0.03425 ; skirt
G1 X150.182 Y131.914 E0.03516 ; skirt
G1 X149.120 Y132.259 E0.03502 ; skirt
G1 X148.018 Y132.377 E0.03476 ; skirt
G1 X101.931 Y132.376 E1.44500 ; skirt
G1 X100.888 Y132.261 E0.03292 ; skirt
G1 X99.906 Y131.951 E0.03227 ; skirt
G1 X99.220 Y131.601 E0.02417 ; skirt
G1 X98.373 Y130.969 E0.03313 ; skirt
G1 X97.649 Y130.158 E0.03407 ; skirt
G1 X97.087 Y129.186 E0.03521 ; skirt
G1 X96.743 Y128.130 E0.03481 ; skirt
G1 X96.623 Y127.024 E0.03488 ; skirt
G1 X96.624 Y82.931 E1.38249 ; skirt
G1 X96.739 Y81.889 E0.03287 ; skirt
G1 X97.046 Y80.912 E0.03211 ; skirt
G1 X97.396 Y80.226 E0.02416 ; skirt
G1 X97.990 Y79.427 E0.03122 ; skirt
G1 E-0.48000 F2100.00000 ; retract
G1 F5760
G1 X98.638 Y78.835 E-0.30400 ; wipe and retract
G1 E-0.01600 F2100.00000 ; retract
G1 Z0.800 F7200.000 ; lift Z
G1 X100.488 Y81.639 F7200.000 ; move to first perimeter point
G1 Z0.200 F7200.000 ; restore layer Z
G1 E0.80000 F2100.00000 ; unretract
G1 F1680
G1 X100.804 Y81.354 E0.01334 ; perimeter
G1 X101.172 Y81.141 E0.01334 ; perimeter
G1 X101.577 Y81.010 E0.01334 ; perimeter
G1 X102.025 Y80.964 E0.01413 ; perimeter
G1 X147.981 Y80.964 E1.44091 ; perimeter
G1 X148.213 Y80.977 E0.00727 ; perimeter
G1 X148.629 Y81.065 E0.01334 ; perimeter
G1 X149.017 Y81.238 E0.01334 ; perimeter
G1 X149.361 Y81.488 E0.01333 ; perimeter
G1 X149.646 Y81.804 E0.01334 ; perimeter
G1 X149.859 Y82.172 E0.01333 ; perimeter
G1 X149.990 Y82.577 E0.01334 ; perimeter
G1 X150.036 Y83.025 E0.01413 ; perimeter
G1 X150.036 Y126.975 E1.37801 ; perimeter
G1 X150.023 Y127.213 E0.00747 ; perimeter
G1 X149.935 Y127.629 E0.01334 ; perimeter
G1 X149.762 Y128.017 E0.01334 ; perimeter
G1 X149.512 Y128.361 E0.01333 ; perimeter
G1 X149.196 Y128.646 E0.01334 ; perimeter
G1 X148.827 Y128.859 E0.01334 ; perimeter
G1 X148.423 Y128.990 E0.01333 ; perimeter
G1 X147.975 Y129.036 E0.01413 ; perimeter
G1 X102.025 Y129.036 E1.44072 ; perimeter
G1 X101.787 Y129.023 E0.00747 ; perimeter
G1 X101.371 Y128.935 E0.01334 ; perimeter
G1 X100.983 Y128.762 E0.01334 ; perimeter
G1 X100.639 Y128.512 E0.01333 ; perimeter
G1 X100.354 Y128.196 E0.01334 ; perimeter
G1 X100.141 Y127.827 E0.01334 ; perimeter
G1 X100.010 Y127.423 E0.01333 ; perimeter
G1 X99.964 Y126.975 E0.01413 ; perimeter
G1 X99.964 Y83.025 E1.37801 ; perimeter
G1 X99.977 Y82.787 E0.00747 ; perimeter
G1 X100.065 Y82.371 E0.01334 ; perimeter
G1 X100.238 Y81.983 E0.01334 ; perimeter
G1 X100.450 Y81.685 E0.01146 ; perimeter
G1 X100.157 Y81.448 F7200.000 ; move to first perimeter point
G1 F1680
G1 X100.386 Y81.207 E0.01041 ; perimeter
G1 X100.582 Y81.049 E0.00792 ; perimeter
G1 X100.794 Y80.911 E0.00792 ; perimeter
G1 X101.019 Y80.796 E0.00792 ; perimeter
G1 X101.255 Y80.706 E0.00792 ; perimeter
G1 X101.498 Y80.641 E0.00792 ; perimeter
G1 X101.748 Y80.601 E0.00792 ; perimeter
G1 X102.015 Y80.587 E0.00840 ; perimeter
G1 X147.991 Y80.587 E1.44153 ; perimeter
G1 X148.252 Y80.601 E0.00820 ; perimeter
G1 X148.501 Y80.641 E0.00792 ; perimeter
G1 X148.745 Y80.706 E0.00792 ; perimeter
G1 X148.981 Y80.796 E0.00791 ; perimeter
G1 X149.206 Y80.911 E0.00792 ; perimeter
G1 X149.418 Y81.049 E0.00792 ; perimeter
G1 X149.614 Y81.207 E0.00791 ; perimeter
G1 X149.793 Y81.386 E0.00792 ; perimeter
G1 X149.952 Y81.582 E0.00792 ; perimeter
G1 X150.089 Y81.794 E0.00791 ; perimeter
G1 X150.204 Y82.019 E0.00792 ; perimeter
G1 X150.294 Y82.255 E0.00792 ; perimeter
G1 X150.359 Y82.499 E0.00792 ; perimeter
G1 X150.399 Y82.748 E0.00792 ; perimeter
G1 X150.413 Y83.015 E0.00840 ; perimeter
G1 X150.413 Y126.985 E1.37863 ; perimeter
G1 X150.399 Y127.252 E0.00840 ; perimeter
G1 X150.359 Y127.501 E0.00792 ; perimeter
G1 X150.294 Y127.745 E0.00792 ; perimeter
G1 X150.204 Y127.981 E0.00791 ; perimeter
G1 X150.089 Y128.206 E0.00792 ; perimeter
G1 X149.952 Y128.418 E0.00791 ; perimeter
G1 X149.793 Y128.614 E0.00792 ; perimeter
G1 X149.614 Y128.793 E0.00792 ; perimeter
G1 X149.418 Y128.952 E0.00792 ; perimeter
G1 X149.206 Y129.089 E0.00791 ; perimeter
G1 X148.981 Y129.204 E0.00792 ; perimeter
G1 X148.745 Y129.294 E0.00791 ; perimeter
G1 X148.501 Y129.359 E0.00792 ; perimeter
G1 X148.252 Y129.399 E0.00792 ; perimeter
G1 X147.985 Y129.413 E0.00840 ; perimeter
G1 X102.015 Y129.413 E1.44134 ; perimeter
G1 X101.748 Y129.399 E0.00840 ; perimeter
G1 X101.498 Y129.359 E0.00792 ; perimeter
G1 X101.255 Y129.294 E0.00792 ; perimeter
G1 X101.019 Y129.204 E0.00792 ; perimeter
G1 X100.794 Y129.089 E0.00792 ; perimeter
G1 X100.582 Y128.952 E0.00791 ; perimeter
G1 X100.386 Y128.793 E0.00792 ; perimeter
G1 X100.207 Y128.614 E0.00792 ; perimeter
G1 X100.049 Y128.418 E0.00791 ; perimeter
G1 X99.911 Y128.206 E0.00792 ; perimeter
G1 X99.796 Y127.981 E0.00792 ; perimeter
G1 X99.706 Y127.745 E0.00791 ; perimeter
G1 X99.641 Y127.501 E0.00792 ; perimeter
G1 X99.601 Y127.252 E0.00792 ; perimeter
G1 X99.587 Y126.985 E0.00840 ; perimeter
G1 X99.587 Y83.015 E1.37863 ; perimeter
G1 X99.601 Y82.748 E0.00840 ; perimeter
G1 X99.641 Y82.498 E0.00792 ; perimeter
G1 X99.706 Y82.255 E0.00792 ; perimeter
G1 X99.796 Y82.019 E0.00792 ; perimeter
G1 X99.911 Y81.794 E0.00792 ; perimeter
G1 X100.119 Y81.495 E0.01144 ; perimeter
G1 X99.826 Y81.257 F7200.000 ; move to first perimeter point
G1 F1260
G1 X100.133 Y80.927 E0.01414 ; perimeter
G1 X100.360 Y80.743 E0.00916 ; perimeter
G1 X100.605 Y80.584 E0.00916 ; perimeter
G1 X100.865 Y80.451 E0.00916 ; perimeter
G1 X101.138 Y80.347 E0.00916 ; perimeter
G1 X101.420 Y80.271 E0.00916 ; perimeter
G1 X101.708 Y80.226 E0.00916 ; perimeter
G1 X102.005 Y80.210 E0.00933 ; perimeter
G1 X148.001 Y80.210 E1.44215 ; perimeter
G1 X148.292 Y80.226 E0.00913 ; perimeter
G1 X148.580 Y80.271 E0.00915 ; perimeter
G1 X148.862 Y80.347 E0.00916 ; perimeter
G1 X149.135 Y80.451 E0.00915 ; perimeter
G1 X149.395 Y80.584 E0.00916 ; perimeter
G1 X149.640 Y80.743 E0.00916 ; perimeter
G1 X149.867 Y80.927 E0.00915 ; perimeter
G1 X150.073 Y81.133 E0.00916 ; perimeter
G1 X150.257 Y81.360 E0.00916 ; perimeter
G1 X150.416 Y81.605 E0.00915 ; perimeter
G1 X150.548 Y81.865 E0.00916 ; perimeter
G1 X150.653 Y82.138 E0.00916 ; perimeter
G1 X150.729 Y82.420 E0.00916 ; perimeter
G1 X150.774 Y82.708 E0.00916 ; perimeter
G1 X150.790 Y83.005 E0.00933 ; perimeter
G1 X150.790 Y126.995 E1.37925 ; perimeter
G1 X150.774 Y127.292 E0.00933 ; perimeter
G1 X150.729 Y127.580 E0.00916 ; perimeter
G1 X150.653 Y127.862 E0.00916 ; perimeter
G1 X150.549 Y128.135 E0.00915 ; perimeter
G1 X150.416 Y128.395 E0.00916 ; perimeter
G1 X150.257 Y128.640 E0.00915 ; perimeter
G1 X150.073 Y128.867 E0.00916 ; perimeter
G1 X149.867 Y129.073 E0.00916 ; perimeter
G1 X149.640 Y129.257 E0.00916 ; perimeter
G1 X149.395 Y129.416 E0.00915 ; perimeter
G1 X149.135 Y129.548 E0.00916 ; perimeter
G1 X148.862 Y129.653 E0.00915 ; perimeter
G1 X148.580 Y129.729 E0.00916 ; perimeter
G1 X148.292 Y129.774 E0.00916 ; perimeter
G1 X147.995 Y129.790 E0.00933 ; perimeter
G1 X102.005 Y129.790 E1.44195 ; perimeter
G1 X101.708 Y129.774 E0.00933 ; perimeter
G1 X101.420 Y129.729 E0.00916 ; perimeter
G1 X101.138 Y129.653 E0.00916 ; perimeter
G1 X100.865 Y129.548 E0.00916 ; perimeter
G1 X100.605 Y129.416 E0.00916 ; perimeter
G1 X100.360 Y129.257 E0.00915 ; perimeter
G1 X100.133 Y129.073 E0.00916 ; perimeter
G1 X99.927 Y128.867 E0.00916 ; perimeter
G1 X99.743 Y128.640 E0.00915 ; perimeter
G1 X99.584 Y128.395 E0.00916 ; perimeter
G1 X99.451 Y128.135 E0.00916 ; perimeter
G1 X99.347 Y127.862 E0.00915 ; perimeter
G1 X99.271 Y127.580 E0.00916 ; perimeter
G1 X99.226 Y127.292 E0.00915 ; perimeter
G1 X99.210 Y126.995 E0.00933 ; perimeter
G1 X99.210 Y83.005 E1.37924 ; perimeter
G1 X99.226 Y82.708 E0.00933 ; perimeter
G1 X99.271 Y82.420 E0.00916 ; perimeter
G1 X99.347 Y82.138 E0.00916 ; perimeter
G1 X99.451 Y81.865 E0.00916 ; perimeter
G1 X99.584 Y81.605 E0.00916 ; perimeter
G1 X99.789 Y81.304 E0.01142 ; perimeter
G1 X100.221 Y81.321 F7200.000 ; move inwards before travel
G1 E-0.48000 F2100.00000 ; retract
G1 F5760
G1 X100.133 Y80.927 E-0.17693 ; wipe and retract
G1 F5760
G1 X100.360 Y80.743 E-0.10114 ; wipe and retract
G1 F5760
G1 X100.423 Y80.702 E-0.02593 ; wipe and retract
G1 E-0.01600 F2100.00000 ; retract
G1 Z0.800 F7200.000 ; lift Z
G1 X100.083 Y127.022 F7200.000 ; move to first infill point
G1 Z0.200 F7200.000 ; restore layer Z
G1 E0.80000 F2100.00000 ; unretract
G1 F1680
G1 X101.797 Y128.736 E0.07604 ; infill
G1 X102.347 Y128.753 E0.01726 ; infill
G1 X100.247 Y126.653 E0.09315 ; infill
G1 X100.247 Y126.119 E0.01673 ; infill
G1 X102.881 Y128.753 E0.11681 ; infill
G1 X103.414 Y128.753 E0.01673 ; infill
G1 X100.247 Y125.586 E0.14047 ; infill
G1 X100.247 Y125.053 E0.01673 ; infill
G1 X103.947 Y128.753 E0.16413 ; infill
G1 X104.481 Y128.753 E0.01673 ; infill
G1 X100.247 Y124.519 E0.18778 ; infill
G1 X100.247 Y123.986 E0.01673 ; infill
G1 X105.014 Y128.753 E0.21144 ; infill
G1 X105.548 Y128.753 E0.01673 ; infill
G1 X100.247 Y123.452 E0.23510 ; infill
G1 X100.247 Y122.919 E0.01673 ; infill
G1 X106.081 Y128.753 E0.25876 ; infill
G1 X106.614 Y128.753 E0.01673 ; infill
G1 X100.247 Y122.386 E0.28241 ; infill
G1 X100.247 Y121.852 E0.01673 ; infill
G1 X107.148 Y128.753 E0.30607 ; infill
G1 X107.681 Y128.753 E0.01673 ; infill
G1 X100.247 Y121.319 E0.32973 ; infill
G1 X100.247 Y120.785 E0.01673 ; infill
G1 X108.215 Y128.753 E0.35339 ; infill
G1 X108.748 Y128.753 E0.01673 ; infill
G1 X100.247 Y120.252 E0.37705 ; infill
G1 X100.247 Y119.719 E0.01673 ; infill
G1 X109.281 Y128.753 E0.40070 ; infill
G1 X109.815 Y128.753 E0.01673 ; infill
G1 X100.247 Y119.185 E0.42436 ; infill
G1 X100.247 Y118.652 E0.01673 ; infill
G1 X110.348 Y128.753 E0.44802 ; infill
G1 X110.882 Y128.753 E0.01673 ; infill
G1 X100.247 Y118.118 E0.47168 ; infill
G1 X100.247 Y117.585 E0.01673 ; infill
G1 X111.415 Y128.753 E0.49533 ; infill
G1 X111.948 Y128.753 E0.01673 ; infill
G1 X100.247 Y117.052 E0.51899 ; infill
G1 X100.247 Y116.518 E0.01673 ; infill
G1 X112.482 Y128.753 E0.54265 ; infill
G1 X113.015 Y128.753 E0.01673 ; infill
G1 X100.247 Y115.985 E0.56631 ; infill
G1 X100.247 Y115.451 E0.01673 ; infill
G1 X113.549 Y128.753 E0.58996 ; infill
G1 X114.082 Y128.753 E0.01673 ; infill
G1 X100.247 Y114.918 E0.61362 ; infill
G1 X100.247 Y114.385 E0.01673 ; infill
G1 X114.615 Y128.753 E0.63728 ; infill
G1 X115.149 Y128.753 E0.01673 ; infill
G1 X100.247 Y113.851 E0.66094 ; infill
G1 X100.247 Y113.318 E0.01673 ; infill
G1 X115.682 Y128.753 E0.68459 ; infill
G1 X116.216 Y128.753 E0.01673 ; infill
G1 X100.247 Y112.784 E0.70825 ; infill
G1 X100.247 Y112.251 E0.01673 ; infill
G1 X116.749 Y128.753 E0.73191 ; infill
G1 X117.282 Y128.753 E0.01673 ; infill
G1 X100.247 Y111.718 E0.75557 ; infill
G1 X100.247 Y111.184 E0.01673 ; infill
G1 X117.816 Y128.753 E0.77922 ; infill
G1 X118.349 Y128.753 E0.01673 ; infill
G1 X100.247 Y110.651 E0.80288 ; infill
G1 X100.247 Y110.117 E0.01673 ; infill
G1 X118.883 Y128.753 E0.82654 ; infill
G1 X119.416 Y128.753 E0.01673 ; infill
G1 X100.247 Y109.584 E0.85020 ; infill
G1 X100.247 Y109.051 E0.01673 ; infill
G1 X119.949 Y128.753 E0.87385 ; infill
G1 X120.483 Y128.753 E0.01673 ; infill
G1 X100.247 Y108.517 E0.89751 ; infill
G1 X100.247 Y107.984 E0.01673 ; infill
G1 X121.016 Y128.753 E0.92117 ; infill
G1 X121.550 Y128.753 E0.01673 ; infill
G1 X100.247 Y107.450 E0.94483 ; infill
G1 X100.247 Y106.917 E0.01673 ; infill
G1 X122.083 Y128.753 E0.96849 ; infill
G1 X122.616 Y128.753 E0.01673 ; infill
G1 X100.247 Y106.384 E0.99214 ; infill
G1 X100.247 Y105.850 E0.01673 ; infill
G1 X123.150 Y128.753 E1.01580 ; infill
G1 X123.683 Y128.753 E0.01673 ; infill
G1 X100.247 Y105.317 E1.03946 ; infill
G1 X100.247 Y104.783 E0.01673 ; infill
G1 X124.217 Y128.753 E1.06312 ; infill
G1 X124.750 Y128.753 E0.01673 ; infill
G1 X100.247 Y104.250 E1.08677 ; infill
G1 X100.247 Y103.717 E0.01673 ; infill
G1 X125.283 Y128.753 E1.11043 ; infill
G1 X125.817 Y128.753 E0.01673 ; infill
G1 X100.247 Y103.183 E1.13409 ; infill
G1 X100.247 Y102.650 E0.01673 ; infill
G1 X126.350 Y128.753 E1.15775 ; infill
G1 X126.884 Y128.753 E0.01673 ; infill
G1 X100.247 Y102.116 E1.18140 ; infill
G1 X100.247 Y101.583 E0.01673 ; infill
G1 X127.417 Y128.753 E1.20506 ; infill
G1 X127.950 Y128.753 E0.01673 ; infill
G1 X100.247 Y101.050 E1.22872 ; infill
G1 X100.247 Y100.516 E0.01673 ; infill
G1 X128.484 Y128.753 E1.25238 ; infill
G1 X129.017 Y128.753 E0.01673 ; infill
G1 X100.247 Y99.983 E1.27603 ; infill
G1 X100.247 Y99.449 E0.01673 ; infill
G1 X129.551 Y128.753 E1.29969 ; infill
G1 X130.084 Y128.753 E0.01673 ; infill
G1 X100.247 Y98.916 E1.32335 ; infill
G1 X100.247 Y98.383 E0.01673 ; infill
G1 X130.617 Y128.753 E1.34701 ; infill
G1 X131.151 Y128.753 E0.01673 ; infill
G1 X100.247 Y97.849 E1.37066 ; infill
G1 X100.247 Y97.316 E0.01673 ; infill
G1 X131.684 Y128.753 E1.39432 ; infill
G1 X132.218 Y128.753 E0.01673 ; infill
G1 X100.247 Y96.782 E1.41798 ; infill
G1 X100.247 Y96.249 E0.01673 ; infill
G1 X132.751 Y128.753 E1.44164 ; infill
G1 X133.284 Y128.753 E0.01673 ; infill
G1 X100.247 Y95.716 E1.46529 ; infill
G1 X100.247 Y95.182 E0.01673 ; infill
G1 X133.818 Y128.753 E1.48895 ; infill
G1 X134.351 Y128.753 E0.01673 ; infill
G1 X100.247 Y94.649 E1.51261 ; infill
G1 X100.247 Y94.115 E0.01673 ; infill
G1 X134.885 Y128.753 E1.53627 ; infill
G1 X135.418 Y128.753 E0.01673 ; infill
G1 X100.247 Y93.582 E1.55993 ; infill
G1 X100.247 Y93.049 E0.01673 ; infill
G1 X135.951 Y128.753 E1.58358 ; infill
G1 X136.485 Y128.753 E0.01673 ; infill
G1 X100.247 Y92.515 E1.60724 ; infill
G1 X100.247 Y91.982 E0.01673 ; infill
G1 X137.018 Y128.753 E1.63090 ; infill
G1 X137.552 Y128.753 E0.01673 ; infill
G1 X100.247 Y91.448 E1.65456 ; infill
G1 X100.247 Y90.915 E0.01673 ; infill
G1 X138.085 Y128.753 E1.67821 ; infill
G1 X138.618 Y128.753 E0.01673 ; infill
G1 X100.247 Y90.382 E1.70187 ; infill
G1 X100.247 Y89.848 E0.01673 ; infill
G1 X139.152 Y128.753 E1.72553 ; infill
G1 X139.685 Y128.753 E0.01673 ; infill
G1 X100.247 Y89.315 E1.74919 ; infill
G1 X100.247 Y88.781 E0.01673 ; infill
G1 X140.219 Y128.753 E1.77284 ; infill
G1 X140.752 Y128.753 E0.01673 ; infill
G1 X100.247 Y88.248 E1.79650 ; infill
G1 X100.247 Y87.715 E0.01673 ; infill
G1 X141.285 Y128.753 E1.82016 ; infill
G1 X141.819 Y128.753 E0.01673 ; infill
G1 X100.247 Y87.181 E1.84382 ; infill
G1 X100.247 Y86.648 E0.01673 ; infill
