; generated by Slic3r 1.37.1-prusa3d-linux64 on 2017-09-19 at 14:38:14

; 

; external perimeters extrusion width = 0.42mm
; perimeters extrusion width = 0.45mm
; infill extrusion width = 0.45mm
; solid infill extrusion width = 0.45mm
; top infill extrusion width = 0.42mm
; first layer extrusion width = 0.42mm

M107 ; disable fan
M115 U3.0.12 ; tell printer latest fw version
M83  ; extruder relative mode
M104 S215 ; set extruder temp
M140 S55 ; set bed temp
M190 S55 ; wait for bed temp
M109 S215 ; wait for extruder temp
G28 W ; home all without mesh bed level
G80 ; mesh bed leveling
G1 Y-3.0 F1000.0 ; go outside pritn area
G1 X60.0 E9.0  F1000.0 ; intro line
G1 X100.0 E12.5  F1000.0 ; intro line
; Filament gcode

G21 ; set units to millimeters
G90 ; use absolute coordinates
M83 ; use relative distances for extrusion
;BEFORE_LAYER_CHANGE
;0.2


G1 E-0.80000 F2100.00000 ; retract
G1 Z0.600 F7200.000 ; lift Z
;AFTER_LAYER_CHANGE
;0.2
G1 X113.220 Y67.969 F7200.000 ; move to first skirt point
G1 Z0.200 F7200.000 ; restore layer Z
G1 E0.80000 F2100.00000 ; unretract
M204 S1000 ; adjust acceleration
G1 F2100
G1 X113.943 Y66.960 E0.03890 ; skirt
G1 X114.787 Y66.040 E0.03915 ; skirt
G1 X115.735 Y65.228 E0.03915 ; skirt
G1 X116.774 Y64.535 E0.03915 ; skirt
G1 X117.699 Y64.056 E0.03267 ; skirt
G1 X118.668 Y63.672 E0.03267 ; skirt
G1 X119.679 Y63.386 E0.03292 ; skirt
G1 X120.705 Y63.204 E0.03267 ; skirt
G1 X121.887 Y63.124 E0.03716 ; skirt
G1 X128.008 Y63.123 E0.19191 ; skirt
G1 X129.852 Y63.290 E0.05806 ; skirt
G1 X131.638 Y63.781 E0.05806 ; skirt
G1 X133.307 Y64.583 E0.05806 ; skirt
G1 X134.814 Y65.673 E0.05831 ; skirt
G1 X136.101 Y67.015 E0.05831 ; skirt
G1 X137.125 Y68.558 E0.05806 ; skirt
G1 X137.858 Y70.259 E0.05806 ; skirt
G1 X138.278 Y72.071 E0.05831 ; skirt
G1 X138.377 Y73.491 E0.04463 ; skirt
G1 X138.342 Y137.351 E2.00228 ; skirt
G1 X138.160 Y138.610 E0.03990 ; skirt
G1 X137.826 Y139.838 E0.03990 ; skirt
G1 X137.343 Y141.015 E0.03990 ; skirt
G1 X136.716 Y142.132 E0.04015 ; skirt
G1 X135.961 Y143.156 E0.03990 ; skirt
G1 X135.081 Y144.086 E0.04015 ; skirt
G1 X134.099 Y144.896 E0.03990 ; skirt
G1 X133.018 Y145.583 E0.04015 ; skirt
G1 X132.089 Y146.037 E0.03243 ; skirt
G1 X131.120 Y146.397 E0.03243 ; skirt
G1 X130.119 Y146.658 E0.03243 ; skirt
G1 X129.098 Y146.819 E0.03243 ; skirt
G1 X128.033 Y146.877 E0.03342 ; skirt
G1 X121.149 Y146.842 E0.21584 ; skirt
G1 X119.417 Y146.550 E0.05508 ; skirt
G1 X117.752 Y145.968 E0.05533 ; skirt
G1 X116.209 Y145.111 E0.05533 ; skirt
G1 X114.834 Y144.005 E0.05533 ; skirt
G1 X113.666 Y142.682 E0.05533 ; skirt
G1 X112.739 Y141.181 E0.05533 ; skirt
G1 X112.079 Y139.544 E0.05533 ; skirt
G1 X111.707 Y137.819 E0.05533 ; skirt
G1 X111.623 Y136.509 E0.04115 ; skirt
G1 X111.657 Y72.657 E2.00204 ; skirt
G1 X111.833 Y71.421 E0.03915 ; skirt
G1 X112.154 Y70.223 E0.03890 ; skirt
G1 X112.619 Y69.064 E0.03915 ; skirt
G1 X113.191 Y68.021 E0.03727 ; skirt
G1 E-0.48000 F2100.00000 ; retract
G1 F5760
G1 X113.698 Y67.305 E-0.30400 ; wipe and retract
G1 E-0.01600 F2100.00000 ; retract
G1 Z0.800 F7200.000 ; lift Z
G1 X120.483 Y65.125 F7200.000 ; move to first brim point
G1 Z0.200 F7200.000 ; restore layer Z
G1 E0.80000 F2100.00000 ; unretract
G1 F2100
G1 X129.600 Y65.129 E0.28586 ; brim
G1 X130.919 Y65.496 E0.04293 ; brim
G1 X132.158 Y66.051 E0.04256 ; brim
G1 X134.295 Y67.787 E0.08634 ; brim
G1 X135.798 Y70.073 E0.08577 ; brim
G1 X136.484 Y72.749 E0.08662 ; brim
G1 X136.456 Y137.424 E2.02784 ; brim
G1 X136.014 Y139.393 E0.06329 ; brim
G1 X135.132 Y141.153 E0.06172 ; brim
G1 X133.569 Y142.919 E0.07393 ; brim
G1 X131.641 Y144.203 E0.07265 ; brim
G1 X129.379 Y144.897 E0.07419 ; brim
G1 X120.839 Y144.931 E0.26776 ; brim
G1 X119.322 Y144.588 E0.04877 ; brim
G1 X117.916 Y143.990 E0.04789 ; brim
G1 X115.836 Y142.355 E0.08296 ; brim
G1 X114.232 Y139.994 E0.08949 ; brim
G1 X113.516 Y137.253 E0.08885 ; brim
G1 X113.553 Y72.497 E2.03036 ; brim
G1 X113.960 Y70.682 E0.05834 ; brim
G1 X114.782 Y68.976 E0.05937 ; brim
G1 X116.322 Y67.179 E0.07422 ; brim
G1 X118.255 Y65.847 E0.07360 ; brim
G1 X120.425 Y65.144 E0.07153 ; brim
G1 X120.513 Y65.502 F7200.000 ; move to first brim point
G1 F2100
G1 X129.573 Y65.506 E0.28408 ; brim
G1 X130.802 Y65.854 E0.04006 ; brim
G1 X131.980 Y66.384 E0.04049 ; brim
G1 X134.033 Y68.061 E0.08311 ; brim
G1 X135.465 Y70.252 E0.08209 ; brim
G1 X136.107 Y72.772 E0.08152 ; brim
G1 X136.079 Y137.403 E2.02646 ; brim
G1 X135.666 Y139.246 E0.05923 ; brim
G1 X134.833 Y140.923 E0.05871 ; brim
G1 X133.340 Y142.619 E0.07084 ; brim
G1 X131.455 Y143.874 E0.07101 ; brim
G1 X129.350 Y144.521 E0.06904 ; brim
G1 X120.901 Y144.558 E0.26491 ; brim
G1 X119.454 Y144.234 E0.04649 ; brim
G1 X118.087 Y143.653 E0.04655 ; brim
G1 X116.093 Y142.077 E0.07971 ; brim
G1 X114.588 Y139.867 E0.08383 ; brim
G1 X113.893 Y137.228 E0.08556 ; brim
G1 X113.925 Y72.559 E2.02767 ; brim
G1 X114.309 Y70.825 E0.05569 ; brim
G1 X115.085 Y69.202 E0.05640 ; brim
G1 X116.557 Y67.474 E0.07116 ; brim
G1 X118.400 Y66.197 E0.07029 ; brim
G1 X120.456 Y65.521 E0.06786 ; brim
G1 X120.544 Y65.879 F7200.000 ; move to first brim point
G1 F2100
G1 X129.495 Y65.876 E0.28067 ; brim
G1 X130.686 Y66.213 E0.03880 ; brim
G1 X131.803 Y66.718 E0.03842 ; brim
G1 X133.735 Y68.292 E0.07815 ; brim
G1 X135.108 Y70.377 E0.07828 ; brim
G1 X135.730 Y72.796 E0.07831 ; brim
G1 X135.706 Y137.342 E2.02379 ; brim
G1 X135.317 Y139.100 E0.05647 ; brim
G1 X134.532 Y140.694 E0.05569 ; brim
G1 X133.109 Y142.320 E0.06777 ; brim
G1 X131.316 Y143.523 E0.06769 ; brim
G1 X129.319 Y144.144 E0.06556 ; brim
G1 X120.962 Y144.185 E0.26203 ; brim
G1 X119.553 Y143.870 E0.04528 ; brim
G1 X118.259 Y143.317 E0.04413 ; brim
G1 X116.350 Y141.800 E0.07644 ; brim
G1 X114.919 Y139.682 E0.08014 ; brim
G1 X114.270 Y137.204 E0.08032 ; brim
G1 X114.298 Y72.619 E2.02503 ; brim
G1 X114.659 Y70.966 E0.05305 ; brim
G1 X115.389 Y69.426 E0.05343 ; brim
G1 X116.794 Y67.769 E0.06811 ; brim
G1 X118.545 Y66.545 E0.06699 ; brim
G1 X120.487 Y65.898 E0.06417 ; brim
G1 X120.575 Y66.256 F7200.000 ; move to first brim point
G1 F2100
G1 X129.418 Y66.246 E0.27726 ; brim
G1 X130.544 Y66.563 E0.03665 ; brim
G1 X131.625 Y67.051 E0.03721 ; brim
G1 X133.437 Y68.525 E0.07322 ; brim
G1 X134.751 Y70.503 E0.07446 ; brim
G1 X135.353 Y72.820 E0.07506 ; brim
G1 X135.329 Y137.321 E2.02239 ; brim
G1 X134.969 Y138.955 E0.05247 ; brim
G1 X134.231 Y140.465 E0.05268 ; brim
G1 X132.877 Y142.022 E0.06470 ; brim
G1 X131.176 Y143.172 E0.06437 ; brim
G1 X129.289 Y143.767 E0.06205 ; brim
G1 X120.982 Y143.808 E0.26044 ; brim
G1 X119.654 Y143.506 E0.04271 ; brim
G1 X118.432 Y142.980 E0.04172 ; brim
G1 X116.609 Y141.524 E0.07317 ; brim
G1 X115.250 Y139.499 E0.07645 ; brim
G1 X114.647 Y137.181 E0.07512 ; brim
G1 X114.675 Y72.640 E2.02363 ; brim
G1 X115.023 Y71.068 E0.05047 ; brim
G1 X115.694 Y69.650 E0.04919 ; brim
G1 X117.031 Y68.063 E0.06508 ; brim
G1 X118.693 Y66.894 E0.06370 ; brim
G1 X120.519 Y66.275 E0.06044 ; brim
G1 X120.608 Y66.633 F7200.000 ; move to first brim point
G1 F2100
G1 X129.341 Y66.616 E0.27383 ; brim
G1 X130.427 Y66.922 E0.03538 ; brim
G1 X131.447 Y67.385 E0.03511 ; brim
G1 X133.140 Y68.759 E0.06835 ; brim
G1 X134.395 Y70.630 E0.07064 ; brim
G1 X134.976 Y72.844 E0.07179 ; brim
G1 X134.952 Y137.301 E2.02099 ; brim
G1 X134.620 Y138.811 E0.04850 ; brim
G1 X133.930 Y140.238 E0.04967 ; brim
G1 X132.644 Y141.724 E0.06163 ; brim
G1 X131.034 Y142.821 E0.06106 ; brim
G1 X129.257 Y143.390 E0.05850 ; brim
G1 X121.044 Y143.436 E0.25753 ; brim
G1 X119.787 Y143.153 E0.04040 ; brim
G1 X118.605 Y142.644 E0.04035 ; brim
G1 X116.867 Y141.248 E0.06989 ; brim
G1 X115.606 Y139.372 E0.07086 ; brim
G1 X115.024 Y137.156 E0.07185 ; brim
G1 X115.052 Y72.661 E2.02221 ; brim
G1 X115.373 Y71.209 E0.04661 ; brim
G1 X115.999 Y69.873 E0.04625 ; brim
G1 X117.269 Y68.356 E0.06205 ; brim
G1 X118.842 Y67.241 E0.06043 ; brim
G1 X120.551 Y66.653 E0.05669 ; brim
G1 X120.641 Y67.010 F7200.000 ; move to first brim point
G1 F2100
G1 X129.265 Y66.986 E0.27040 ; brim
G1 X130.285 Y67.271 E0.03320 ; brim
G1 X131.269 Y67.718 E0.03388 ; brim
G1 X132.879 Y69.033 E0.06517 ; brim
G1 X134.063 Y70.812 E0.06703 ; brim
G1 X134.599 Y72.868 E0.06662 ; brim
G1 X134.579 Y137.241 E2.01836 ; brim
G1 X134.270 Y138.669 E0.04582 ; brim
G1 X133.627 Y140.011 E0.04666 ; brim
G1 X132.409 Y141.428 E0.05857 ; brim
G1 X130.891 Y142.471 E0.05776 ; brim
G1 X129.225 Y143.013 E0.05492 ; brim
G1 X121.105 Y143.063 E0.25462 ; brim
G1 X119.919 Y142.799 E0.03807 ; brim
G1 X118.778 Y142.308 E0.03897 ; brim
G1 X117.127 Y140.973 E0.06656 ; brim
G1 X115.938 Y139.190 E0.06721 ; brim
G1 X115.401 Y137.132 E0.06667 ; brim
G1 X115.425 Y72.721 E2.01958 ; brim
G1 X115.724 Y71.348 E0.04405 ; brim
G1 X116.305 Y70.095 E0.04331 ; brim
G1 X117.509 Y68.648 E0.05902 ; brim
G1 X118.992 Y67.588 E0.05718 ; brim
G1 X120.585 Y67.030 E0.05290 ; brim
G1 X120.675 Y67.387 F7200.000 ; move to first brim point
G1 F2100
G1 X129.189 Y67.356 E0.26694 ; brim
G1 X130.169 Y67.630 E0.03192 ; brim
G1 X131.090 Y68.050 E0.03173 ; brim
G1 X132.618 Y69.306 E0.06201 ; brim
G1 X133.707 Y70.939 E0.06153 ; brim
G1 X134.222 Y72.893 E0.06336 ; brim
G1 X134.206 Y137.182 E2.01574 ; brim
G1 X133.919 Y138.528 E0.04316 ; brim
G1 X133.324 Y139.786 E0.04363 ; brim
G1 X132.174 Y141.132 E0.05551 ; brim
G1 X130.746 Y142.122 E0.05447 ; brim
G1 X129.193 Y142.636 E0.05130 ; brim
G1 X121.166 Y142.690 E0.25169 ; brim
G1 X120.019 Y142.435 E0.03683 ; brim
G1 X118.952 Y141.973 E0.03647 ; brim
G1 X117.387 Y140.699 E0.06327 ; brim
G1 X116.294 Y139.063 E0.06168 ; brim
G1 X115.778 Y137.108 E0.06341 ; brim
G1 X115.802 Y72.741 E2.01817 ; brim
G1 X116.076 Y71.486 E0.04028 ; brim
G1 X116.611 Y70.316 E0.04033 ; brim
G1 X117.783 Y68.908 E0.05746 ; brim
G1 X119.144 Y67.934 E0.05248 ; brim
G1 X120.619 Y67.407 E0.04908 ; brim
G1 X120.710 Y67.764 F7200.000 ; move to first brim point
G1 F2100
G1 X129.113 Y67.727 E0.26348 ; brim
G1 X130.026 Y67.980 E0.02971 ; brim
G1 X130.910 Y68.383 E0.03046 ; brim
G1 X132.355 Y69.578 E0.05880 ; brim
G1 X133.375 Y71.120 E0.05796 ; brim
G1 X133.845 Y72.917 E0.05822 ; brim
G1 X133.829 Y137.161 E2.01435 ; brim
G1 X133.555 Y138.427 E0.04061 ; brim
G1 X133.020 Y139.561 E0.03932 ; brim
G1 X131.937 Y140.838 E0.05248 ; brim
G1 X130.599 Y141.774 E0.05120 ; brim
G1 X129.159 Y142.259 E0.04765 ; brim
G1 X121.226 Y142.317 E0.24877 ; brim
G1 X120.152 Y142.082 E0.03446 ; brim
G1 X119.126 Y141.637 E0.03506 ; brim
G1 X117.648 Y140.426 E0.05992 ; brim
G1 X116.626 Y138.881 E0.05807 ; brim
G1 X116.155 Y137.084 E0.05826 ; brim
G1 X116.175 Y72.801 E2.01556 ; brim
G1 X116.428 Y71.622 E0.03779 ; brim
G1 X116.917 Y70.538 E0.03730 ; brim
G1 X118.058 Y69.168 E0.05589 ; brim
G1 X119.298 Y68.279 E0.04785 ; brim
G1 X120.654 Y67.785 E0.04524 ; brim
G1 X120.746 Y68.141 F7200.000 ; move to first brim point
G1 F2100
G1 X129.038 Y68.097 E0.25998 ; brim
G1 X129.911 Y68.339 E0.02841 ; brim
G1 X130.730 Y68.715 E0.02826 ; brim
G1 X132.092 Y69.850 E0.05559 ; brim
G1 X133.042 Y71.301 E0.05438 ; brim
G1 X133.468 Y72.940 E0.05311 ; brim
G1 X133.452 Y137.141 E2.01298 ; brim
G1 X133.205 Y138.288 E0.03677 ; brim
G1 X132.716 Y139.337 E0.03629 ; brim
G1 X131.665 Y140.575 E0.05091 ; brim
G1 X130.451 Y141.426 E0.04649 ; brim
G1 X129.125 Y141.882 E0.04397 ; brim
G1 X121.286 Y141.945 E0.24581 ; brim
G1 X120.251 Y141.718 E0.03321 ; brim
G1 X119.302 Y141.303 E0.03248 ; brim
G1 X117.910 Y140.153 E0.05660 ; brim
G1 X116.982 Y138.755 E0.05262 ; brim
G1 X116.532 Y137.059 E0.05500 ; brim
G1 X116.552 Y72.821 E2.01415 ; brim
G1 X116.781 Y71.757 E0.03412 ; brim
G1 X117.224 Y70.758 E0.03426 ; brim
G1 X118.332 Y69.427 E0.05431 ; brim
G1 X119.454 Y68.623 E0.04328 ; brim
G1 X120.690 Y68.162 E0.04136 ; brim
G1 X120.783 Y68.518 F7200.000 ; move to first brim point
G1 F2100
G1 X128.963 Y68.468 E0.25648 ; brim
G1 X129.768 Y68.688 E0.02615 ; brim
G1 X130.549 Y69.047 E0.02697 ; brim
G1 X131.829 Y70.121 E0.05236 ; brim
G1 X132.686 Y71.426 E0.04898 ; brim
G1 X133.091 Y72.965 E0.04988 ; brim
G1 X133.079 Y137.083 E2.01037 ; brim
G1 X132.853 Y138.150 E0.03422 ; brim
G1 X132.411 Y139.113 E0.03321 ; brim
G1 X131.393 Y140.313 E0.04933 ; brim
G1 X130.301 Y141.080 E0.04184 ; brim
G1 X129.090 Y141.506 E0.04025 ; brim
G1 X121.344 Y141.571 E0.24287 ; brim
G1 X120.385 Y141.364 E0.03079 ; brim
G1 X119.478 Y140.968 E0.03104 ; brim
G1 X118.174 Y139.882 E0.05322 ; brim
G1 X117.314 Y138.574 E0.04906 ; brim
G1 X116.909 Y137.035 E0.04988 ; brim
G1 X116.925 Y72.879 E2.01157 ; brim
G1 X117.134 Y71.889 E0.03172 ; brim
G1 X117.531 Y70.979 E0.03115 ; brim
G1 X118.607 Y69.687 E0.05270 ; brim
G1 X119.612 Y68.966 E0.03879 ; brim
G1 X120.727 Y68.539 E0.03744 ; brim
G1 X120.860 Y68.892 F7200.000 ; move to first brim point
G1 F2100
G1 X128.888 Y68.838 E0.25172 ; brim
G1 X129.653 Y69.048 E0.02485 ; brim
G1 X130.367 Y69.378 E0.02469 ; brim
G1 X131.563 Y70.390 E0.04911 ; brim
G1 X132.353 Y71.606 E0.04545 ; brim
G1 X132.713 Y72.989 E0.04481 ; brim
G1 X132.702 Y137.063 E2.00901 ; brim
G1 X132.501 Y138.015 E0.03049 ; brim
G1 X132.106 Y138.890 E0.03011 ; brim
G1 X131.121 Y140.051 E0.04773 ; brim
G1 X130.149 Y140.734 E0.03726 ; brim
G1 X129.054 Y141.129 E0.03649 ; brim
G1 X121.403 Y141.198 E0.23989 ; brim
G1 X120.483 Y141.000 E0.02952 ; brim
G1 X119.655 Y140.634 E0.02839 ; brim
G1 X118.438 Y139.612 E0.04984 ; brim
G1 X117.647 Y138.394 E0.04551 ; brim
G1 X117.287 Y137.011 E0.04482 ; brim
G1 X117.298 Y72.937 E2.00902 ; brim
G1 X117.488 Y72.022 E0.02929 ; brim
G1 X117.866 Y71.155 E0.02966 ; brim
G1 X118.879 Y69.949 E0.04940 ; brim
G1 X119.810 Y69.288 E0.03578 ; brim
G1 X120.804 Y68.913 E0.03332 ; brim
G1 X120.935 Y69.266 F7200.000 ; move to first brim point
G1 F2100
G1 X120.984 Y69.247 E0.00164 ; brim
G1 X128.814 Y69.209 E0.24552 ; brim
G1 X129.509 Y69.397 E0.02256 ; brim
G1 X130.185 Y69.710 E0.02336 ; brim
G1 X131.298 Y70.659 E0.04586 ; brim
G1 X131.996 Y71.732 E0.04014 ; brim
G1 X132.336 Y73.014 E0.04158 ; brim
G1 X132.329 Y137.006 E2.00643 ; brim
G1 X132.147 Y137.882 E0.02805 ; brim
G1 X131.800 Y138.667 E0.02693 ; brim
G1 X130.849 Y139.789 E0.04610 ; brim
G1 X129.994 Y140.389 E0.03277 ; brim
G1 X129.017 Y140.752 E0.03269 ; brim
G1 X121.461 Y140.825 E0.23692 ; brim
G1 X120.617 Y140.647 E0.02704 ; brim
G1 X119.833 Y140.300 E0.02689 ; brim
G1 X118.703 Y139.342 E0.04645 ; brim
G1 X118.004 Y138.268 E0.04018 ; brim
G1 X117.664 Y136.986 E0.04158 ; brim
G1 X117.671 Y72.994 E2.00643 ; brim
G1 X117.853 Y72.118 E0.02805 ; brim
G1 X118.200 Y71.333 E0.02693 ; brim
G1 X119.151 Y70.211 E0.04610 ; brim
G1 X120.006 Y69.611 E0.03277 ; brim
G1 X120.879 Y69.287 E0.02920 ; brim
G1 X121.010 Y69.640 F7200.000 ; move to first brim point
G1 F2100
G1 X121.084 Y69.613 E0.00248 ; brim
G1 X128.740 Y69.579 E0.24005 ; brim
G1 X129.394 Y69.756 E0.02124 ; brim
G1 X130.002 Y70.040 E0.02101 ; brim
G1 X131.030 Y70.926 E0.04257 ; brim
G1 X131.663 Y71.910 E0.03667 ; brim
G1 X131.959 Y73.038 E0.03656 ; brim
G1 X131.952 Y136.986 E2.00505 ; brim
G1 X131.783 Y137.783 E0.02556 ; brim
G1 X131.468 Y138.488 E0.02420 ; brim
G1 X130.579 Y139.525 E0.04283 ; brim
G1 X129.840 Y140.044 E0.02831 ; brim
G1 X128.916 Y140.387 E0.03089 ; brim
G1 X121.479 Y140.448 E0.23319 ; brim
G1 X120.717 Y140.283 E0.02445 ; brim
G1 X120.012 Y139.968 E0.02421 ; brim
G1 X118.970 Y139.074 E0.04304 ; brim
G1 X118.337 Y138.090 E0.03670 ; brim
G1 X118.041 Y136.962 E0.03656 ; brim
G1 X118.048 Y73.014 E2.00505 ; brim
G1 X118.217 Y72.217 E0.02556 ; brim
G1 X118.532 Y71.512 E0.02420 ; brim
G1 X119.421 Y70.475 E0.04283 ; brim
G1 X120.160 Y69.956 E0.02831 ; brim
G1 X120.954 Y69.661 E0.02656 ; brim
G1 X121.083 Y70.014 F7200.000 ; move to first brim point
G1 F2100
G1 X121.182 Y69.978 E0.00332 ; brim
G1 X128.668 Y69.950 E0.23471 ; brim
G1 X129.250 Y70.105 E0.01890 ; brim
G1 X129.818 Y70.370 E0.01964 ; brim
G1 X130.762 Y71.193 E0.03928 ; brim
G1 X131.306 Y72.037 E0.03149 ; brim
G1 X131.582 Y73.063 E0.03332 ; brim
G1 X131.579 Y136.929 E2.00247 ; brim
G1 X131.430 Y137.648 E0.02304 ; brim
G1 X131.135 Y138.308 E0.02266 ; brim
G1 X130.310 Y139.259 E0.03948 ; brim
G1 X129.646 Y139.720 E0.02534 ; brim
